Obsidian-SemiLight/actions/22s/labplot-zoom-out-y.svg

<svg viewBox="0 0 22 22" xmlns="http://www.w3.org/2000/svg"><path d="m3 3v2h1v-1h1v-1zm4 0v1h1v1h1v-2zm5 0v1h6v6h1v-6-1zm-9 4v2h2v-1h-1v-1zm5 0v1h-1v1h2v-2zm-5 5v7h1 6v-1h-6v-6zm11.998047.429688v4.65625l-1.621094-1.621094-.707031.707031 2.121094 2.121094.707031.707031 2.830078-2.828125-.707031-.707031-1.623047 1.621094v-4.65625z" fill="#4d4d4d"/></svg>

<svg xmlns="http://www.w3.org/2000/svg" viewBox="0 0 22 22">
  <defs id="defs3051">
    <style type="text/css" id="current-color-scheme">
      .ColorScheme-Text {
        color:#4d4d4d;
      }
      </style>
  </defs>
 <path 
     style="fill:currentColor;fill-opacity:1;stroke:none" 
     d="M 3 3 L 3 5 L 4 5 L 4 4 L 5 4 L 5 3 L 3 3 z M 7 3 L 7 4 L 8 4 L 8 5 L 9 5 L 9 3 L 7 3 z M 12 3 L 12 4 L 18 4 L 18 10 L 19 10 L 19 4 L 19 3 L 12 3 z M 3 7 L 3 9 L 5 9 L 5 8 L 4 8 L 4 7 L 3 7 z M 8 7 L 8 8 L 7 8 L 7 9 L 9 9 L 9 7 L 8 7 z M 3 12 L 3 19 L 4 19 L 10 19 L 10 18 L 4 18 L 4 12 L 3 12 z M 14.998047 12.429688 L 14.998047 17.085938 L 13.376953 15.464844 L 12.669922 16.171875 L 14.791016 18.292969 L 15.498047 19 L 18.328125 16.171875 L 17.621094 15.464844 L 15.998047 17.085938 L 15.998047 12.429688 L 14.998047 12.429688 z "
     class="ColorScheme-Text"
     />
</svg>
